X: 15422
T: Glen Clova, The
R: polka
M: 2/4
K: Gmajor
Be dB|AG GF/G/|AB cd|ed d2|
Be dB|AG GF/G/|AB cA|AG G2:|
Bd ed|g2 g2|e>d BA|BA Bd|
e>d ef|a2 g2|A>B cA|AG G2:|

